X: 1
T: Scale Test
C: Joe
M: 2/4
L: 1/8
K: G
C,,D,,E,,F,,|G,,A,,B,,C,|
D,E,F,G,|A,B,CD|EFGA|Bcde|
fgab|c'd'e'f'|g'a'b'c''|
d''e''f''g''|


